X: 5
T: The Dances At Kinvara
R: barndance
M: 4/4
L: 1/8
K: Gmaj
G2 B2 BdBG | c2 D2 [F3A3] G | FGAB cdef | gfaf gd^cd |
B2 G2 DBcB | A2 D2 [F3A3] G | FGAB cAFA | G2 B2 G2 :|
B2 dB c2 e2 | d2 b2 b3 f | agfe dcBA | G2 g2 g2 (3def |
g2 dB e2 cA | d2 BG [E2C2] AF | FGAB cAFA | G2 B2 G2 :|
